X: 15
T: Silver Spire, The
Z: Jeff Rowan
S: https://thesession.org/tunes/240#setting53031
R: reel
M: 4/4
L: 1/8
K: Dmaj
|:FE|D2 FDAD FA|dcde fdAF|GABG FADF|GEFD EDCE|
D2 FDAD FA|dcde fdAF|GABG FADF| EDCE D2:|
|:B,2|A,B,CD EFGE|FDEF GABc|(3dcB cABc de|fdgf e2 A/B/c|
defd cdec|dcdB AFED|GABG FADF| EDCE D2 :|

%-------------------- TUNE SEPARATOR --------------------%

